icons/chart-cured-decreasing_fill.svg

<svg width="48" height="48" viewBox="0 0 48 48" fill="none" xmlns="http://www.w3.org/2000/svg">
<path d="M15.8282 18.1398C13.6843 16.7409 11.3026 16 8.87115 16H8V6H6V41C6 41.5523 6.44772 42 7 42H42V40H8V18H8.87117C10.8868 18 12.8924 18.6123 14.7353 19.8148C16.5811 21.0192 18.2174 22.7864 19.5 25.0011C20.9186 27.4509 22.7615 29.4633 24.9025 30.8604C27.0465 32.2593 29.4283 33.0002 31.8597 33H38.3663L35.2927 36.0748C34.9023 36.4654 34.9024 37.0986 35.293 37.489C35.6836 37.8795 36.3168 37.8793 36.7073 37.4887L41.4873 32.7067C41.8776 32.3162 41.8776 31.6833 41.4873 31.2928L36.7073 26.5108C36.3168 26.1202 35.6836 26.1201 35.293 26.5105C34.9024 26.901 34.9023 27.5341 35.2927 27.9247L38.3667 31H31.8596C29.844 31.0001 27.8383 30.3879 25.9954 29.1854C24.1496 27.981 22.5133 26.2137 21.2308 23.9988C19.8121 21.5492 17.9693 19.5368 15.8282 18.1398Z" fill="black"/>
<path d="M40.5537 12.7796C40.8395 13.0654 41 13.453 41 13.8571V16.1429C41 16.547 40.8395 16.9346 40.5537 17.2204C40.2679 17.5061 39.8803 17.6667 39.4762 17.6667H35.6667V21.4762C35.6667 21.8803 35.5061 22.2679 35.2204 22.5537C34.9346 22.8395 34.547 23 34.1429 23H31.8571C31.453 23 31.0654 22.8395 30.7796 22.5537C30.4939 22.2679 30.3333 21.8803 30.3333 21.4762V17.6667H26.5238C26.1197 17.6667 25.7321 17.5061 25.4463 17.2204C25.1605 16.9346 25 16.547 25 16.1429V13.8571C25 13.453 25.1605 13.0654 25.4463 12.7796C25.7321 12.4939 26.1197 12.3333 26.5238 12.3333H30.3333V8.52381C30.3333 8.11967 30.4939 7.73208 30.7796 7.44631C31.0654 7.16054 31.453 7 31.8571 7H34.1429C34.547 7 34.9346 7.16054 35.2204 7.44631C35.5061 7.73208 35.6667 8.11967 35.6667 8.52381V12.3333H39.4762C39.8803 12.3333 40.2679 12.4939 40.5537 12.7796Z" fill="black"/>
</svg>

<svg
  xmlns="http://www.w3.org/2000/svg"
  width="24"
  height="24"
  viewBox="0 0 24 24"
  fill="none"
  stroke="currentColor"
  stroke-width="2"
  stroke-linecap="round"
  stroke-linejoin="round"
>
  <path d="M15.828 18.14C13.684 16.74 11.303 16 8.871 16H8V6H6v35a1 1 0 0 0 1 1h35v-2H8V18h.871c2.016 0 4.021.612 5.864 1.815 1.846 1.204 3.482 2.971 4.765 5.186 1.419 2.45 3.262 4.462 5.403 5.86C27.047 32.258 29.428 33 31.86 33h6.506l-3.073 3.075a1 1 0 0 0 1.414 1.414l4.78-4.782a1 1 0 0 0 0-1.414l-4.78-4.782a1 1 0 0 0-1.414 1.414L38.367 31H31.86c-2.016 0-4.022-.612-5.865-1.815-1.845-1.204-3.482-2.971-4.764-5.186-1.419-2.45-3.262-4.462-5.403-5.86" />
  <path d="M40.554 12.78c.285.285.446.673.446 1.077v2.286a1.524 1.524 0 0 1-1.524 1.524h-3.81v3.81A1.524 1.524 0 0 1 34.144 23h-2.286a1.524 1.524 0 0 1-1.524-1.524v-3.81h-3.81A1.524 1.524 0 0 1 25 16.144v-2.286a1.524 1.524 0 0 1 1.524-1.524h3.81v-3.81A1.524 1.524 0 0 1 31.856 7h2.286a1.524 1.524 0 0 1 1.524 1.524v3.81h3.81c.403 0 .79.16 1.077.446" />
</svg>
